**kern	**kern	**dynam
*part1	*part1	*part1
*staff2	*staff1	*
*I"Piano	*	*
*clefF4	*clefG2	*
*k[b-e-a-d-]	*k[b-e-a-d-]	*
=1	=1	=1
*^	*	*
8r	4.EEE- 4.EE-	4g 4cc 4ee-	.
(8cL	.	.	.
8E-J)	.	8d-) 8g 8cc	.
*v	*v	*	*
=	=	=
!	!LO:TX:b:i:t=a tempo	!
[4.AAA- [4.AA-	(8cL 8e- 8a-	[
.	8c	.
.	8e-J	.
=	=	=
8AAA-] 8AA-]	8a-L	.
8r	8A- 8c 8e-	.
8r	8cJ 8e- 8a-	.
=	=	=
*^	*^	*
8r	4.AA-	4cc-X	4.f-X 4.a-	f <
(8A-L	.	.	.	.
8F-XJ)	.	8ff-X	.	.
=	=	=	=	=
8r	4.AA-	8.cc-XL	4f-X 4a-	[ >
(8A-L	.	.	.	.
.	.	16b-K	.	.
8F-XJ)	.	8a-J	8c-X 8f-	]
*	*	*v	*v	*
=	=	=	=
8r	4.AA-	4e- 4a- 4ccn	.
(8A-L	.	.	.
8E-J)	.	8c 8e- 8a-	.
=	=	=	=
8r	4.AA-	4.B-) 4.d- 4.e-	.
(8GL	.	.	.
8E-J)	.	.	.
=	=	=	=
8r	4.AA-	(4e- 4a- 4cc	.
(8A-L	.	.	.
8E-J)	.	8c 8e- 8a-	.
*v	*v	*	*
=	=	=
*-	*-	*-
!!!system-decoration: {(s1,s2)}
